X:1466
T:Polska ur Sven Donats notbok
T:(MA5-18)
S:Efter Sven Donat
R:Polska
O:Småland
B:Sven Donats notbok
B:http://www.smus.se/earkiv/fmk/browselarge.php?lang=sw&katalogid=Ma+5&bildnr=00020
M:3/4
L:1/8
K:Dm
A|:c2 A2 ^cd|ef de ^cA|=c2 A2 ^cd|[1 ef d3 A:|[2 ef d3 e|]
|:f2 df df|e2 ce ce|f2 df df|e^c A4|
=c2 A2 ^cd|ef de ^cA|=c2 A2 ^cd|[1 ef d3 e:|[2 ef d4|]
(:musicend:)
(:music:)
